packages/assets/static/images/icons/letter-circle-p.svg

<svg width="24" height="24" viewBox="0 0 24 24" xmlns="http://www.w3.org/2000/svg">
<path d="M12 1.87549C9.99747 1.87549 8.0399 2.46931 6.37486 3.58186C4.70981 4.69441 3.41206 6.27572 2.64572 8.12582C1.87939 9.97592 1.67888 12.0117 2.06955 13.9758C2.46023 15.9398 3.42454 17.7439 4.84055 19.1599C6.25656 20.576 8.06066 21.5403 10.0247 21.9309C11.9888 22.3216 14.0246 22.1211 15.8747 21.3548C17.7248 20.5884 19.3061 19.2907 20.4186 17.6256C21.5312 15.9606 22.125 14.003 22.125 12.0005C22.122 9.31609 21.0543 6.74248 19.1562 4.84432C17.258 2.94616 14.6844 1.87847 12 1.87549ZM12 19.8755C10.4425 19.8755 8.91993 19.4136 7.62489 18.5483C6.32985 17.683 5.32049 16.4531 4.72445 15.0141C4.12841 13.5752 3.97246 11.9918 4.27632 10.4642C4.58018 8.93655 5.3302 7.53336 6.43154 6.43202C7.53288 5.33068 8.93607 4.58066 10.4637 4.2768C11.9913 3.97295 13.5747 4.1289 15.0136 4.72494C16.4526 5.32098 17.6825 6.33034 18.5478 7.62537C19.4131 8.92041 19.875 10.443 19.875 12.0005C19.8728 14.0884 19.0424 16.0901 17.566 17.5665C16.0896 19.0429 14.0879 19.8733 12 19.8755ZM12.75 7.12549H9.75C9.45164 7.12549 9.16549 7.24401 8.95451 7.45499C8.74353 7.66597 8.625 7.95212 8.625 8.25049V15.7505C8.625 16.0489 8.74353 16.335 8.95451 16.546C9.16549 16.757 9.45164 16.8755 9.75 16.8755C10.0484 16.8755 10.3345 16.757 10.5455 16.546C10.7565 16.335 10.875 16.0489 10.875 15.7505V14.6255H12.75C13.7446 14.6255 14.6984 14.2304 15.4017 13.5271C16.1049 12.8239 16.5 11.8701 16.5 10.8755C16.5 9.88093 16.1049 8.9271 15.4017 8.22384C14.6984 7.52058 13.7446 7.12549 12.75 7.12549ZM12.75 12.3755H10.875V9.37549H12.75C13.1478 9.37549 13.5294 9.53352 13.8107 9.81483C14.092 10.0961 14.25 10.4777 14.25 10.8755C14.25 11.2733 14.092 11.6548 13.8107 11.9361C13.5294 12.2175 13.1478 12.3755 12.75 12.3755Z"/>
</svg>

<svg viewBox="0 0 24 24" xmlns="http://www.w3.org/2000/svg" aria-hidden="true" fill="currentColor" height="24px" width="24px"><path d="M12 1.875A10.125 10.125 0 1 0 22.125 12 10.137 10.137 0 0 0 12 1.876m0 18a7.875 7.875 0 1 1 7.875-7.874A7.883 7.883 0 0 1 12 19.875m.75-12.75h-3A1.125 1.125 0 0 0 8.625 8.25v7.5a1.125 1.125 0 1 0 2.25 0v-1.124h1.875a3.75 3.75 0 0 0 0-7.5m0 5.25h-1.875v-3h1.875a1.5 1.5 0 0 1 0 3"/></svg>
